X:0
T:40 Long Miles
F:http://www.vwml.org/record/CJS2/10/687
S:John Vincent of Priddy, Somerset
Z:transcribed by Alice Baillie
M:6/8
L:1/8
K:D
A | d d d (dc) B | A B A A G F |  
w:* For-ty long miles_ I tra-velled this day And a
G G G G F E | [M:9/8] F F G A3 A2> A | [M:6/8]  B B B (cB) A | 
w:lit-tle old cot-tage I spied in the way which I ne-ver had seen_ be-
[M:9/8] d2 e f3 d2 d | e g f (ed) c | d3-d2 || 
w:fore be-fore which I ne-ver had seen_ be-fore

